Origami/22x22/apps/stepmania-ssc.svg

<svg width="22" height="22" version="1.1" viewBox="0 0 16.5 16.5" xmlns="http://www.w3.org/2000/svg">
 <g transform="matrix(.5 0 0 .5 16.233989 -.52167909)" style="opacity:.2">
  <path transform="matrix(.74999998 0 0 .74999998 -33.967978 .29335906)" d="m11 4c-3.8780001 0-7 3.1219999-7 7 0 3.878 3.1219999 7 7 7h9.099609l-14.042968 14.042969c-2.7421601 2.74216-2.7421601 7.15823 0 9.90039 2.7421602 2.742161 7.1582304 2.742161 9.9003904 0l14.042969-14.042968v9.099609c0 3.878 3.122 7 7 7s7-3.122 7-7v-26c0-3.8780001-3.122-7-7-7z"/>
 </g>
 <g transform="matrix(.5 0 0 .5 16.233989 -.89667906)" style="fill:#e7b212">
  <path transform="matrix(.74999998 0 0 .74999998 -33.967978 .29335906)" d="m11 4c-3.8780001 0-7 3.1219999-7 7 0 3.878 3.1219999 7 7 7h9.099609l-14.042968 14.042969c-2.7421601 2.74216-2.7421601 7.15823 0 9.90039 2.7421602 2.742161 7.1582304 2.742161 9.9003904 0l14.042969-14.042968v9.099609c0 3.878 3.122 7 7 7s7-3.122 7-7v-26c0-3.8780001-3.122-7-7-7z" style="fill:#e7b212"/>
 </g>
 <g transform="matrix(.5 0 0 .5 16.233989 -.89667906)" style="fill:#ffffff">
  <path transform="matrix(.74999998 0 0 .74999998 -33.967978 .29335906)" d="m11 4c-3.8780001 0-7 3.1219999-7 7 0 0.169082 0.013717 0.333988 0.025391 0.5 0.2560692-3.6415664 3.2656914-6.5 6.974609-6.5h26c3.878 0 7 3.1219999 7 7v-1c0-3.8780001-3.122-7-7-7zm8.099609 15-13.042968 13.042969c-1.4986245 1.498624-2.1726124 3.497146-2.0332031 5.449219 0.1159816-1.619298 0.7900386-3.206055 2.0332031-4.449219l14.042968-14.042969z" style="fill:#ffffff;opacity:.2"/>
 </g>
</svg>

<svg xmlns="http://www.w3.org/2000/svg" width="22" height="22" version="1.1" viewBox="0 0 16.5 16.5">
 <g style="opacity:0.2" transform="matrix(0.5,0,0,0.5,16.233989,-0.52167909)">
  <path d="m 11,4 c -3.8780001,0 -7,3.1219999 -7,7 0,3.878 3.1219999,7 7,7 h 9.099609 L 6.0566406,32.042969 c -2.7421601,2.74216 -2.7421601,7.15823 0,9.90039 2.7421602,2.742161 7.1582304,2.742161 9.9003904,0 L 30,27.900391 V 37 c 0,3.878 3.122,7 7,7 3.878,0 7,-3.122 7,-7 V 11 C 44,7.1219999 40.878,4 37,4 Z" transform="matrix(0.74999998,0,0,0.74999998,-33.967978,0.29335906)"/>
 </g>
 <g transform="matrix(0.5,0,0,0.5,16.233989,-0.89667906)" style="fill:#e7b212">
  <path style="fill:#e7b212" d="m 11,4 c -3.8780001,0 -7,3.1219999 -7,7 0,3.878 3.1219999,7 7,7 h 9.099609 L 6.0566406,32.042969 c -2.7421601,2.74216 -2.7421601,7.15823 0,9.90039 2.7421602,2.742161 7.1582304,2.742161 9.9003904,0 L 30,27.900391 V 37 c 0,3.878 3.122,7 7,7 3.878,0 7,-3.122 7,-7 V 11 C 44,7.1219999 40.878,4 37,4 Z" transform="matrix(0.74999998,0,0,0.74999998,-33.967978,0.29335906)"/>
 </g>
 <g style="fill:#ffffff" transform="matrix(0.5,0,0,0.5,16.233989,-0.89667906)">
  <path style="opacity:0.2;fill:#ffffff" d="M 11,4 C 7.1219999,4 4,7.1219999 4,11 4,11.169082 4.013717,11.333988 4.025391,11.5 4.2814602,7.8584336 7.2910824,5 11,5 h 26 c 3.878,0 7,3.1219999 7,7 V 11 C 44,7.1219999 40.878,4 37,4 Z M 19.099609,19 6.0566406,32.042969 C 4.5580161,33.541593 3.8840282,35.540115 4.0234375,37.492188 4.1394191,35.87289 4.8134761,34.286133 6.0566406,33.042969 L 20.099609,19 Z" transform="matrix(0.74999998,0,0,0.74999998,-33.967978,0.29335906)"/>
 </g>
</svg>
